svgs/sharp-light/bridge-lock.svg

<svg xmlns="http://www.w3.org/2000/svg" viewBox="0 0 640 512"><!--! Font Awesome Pro 6.6.0 by @fontawesome - https://fontawesome.com License - https://fontawesome.com/license (Commercial License) Copyright 2024 Fonticons, Inc. --><path d="M32 32l16 0 64 0 32 0 96 0 32 0 96 0 32 0 96 0 32 0 64 0 16 0 0 32-16 0-64 0 0 64 64 0 16 0 0 32-16 0-64 0-32 0-96 0-32 0-96 0-32 0-96 0-32 0-64 0-16 0 0-32 16 0 64 0 0-64L48 64 32 64l0-32zM384 264.4l0 23.6 0 48c0-35.3-28.7-64-64-64s-64 28.7-64 64l0 128 0 16-16 0-96 0-16 0 0-16 0-128c0-35.3-28.7-64-64-64l-16 0-16 0 0-32 16 0 16 0c53 0 96 43 96 96l0 112 64 0 0-112c0-53 43-96 96-96c24.6 0 47 9.2 64 24.4zM400 64l0 64 96 0 0-64-96 0zm-32 64l0-64-96 0 0 64 96 0zM144 64l0 64 96 0 0-64-96 0zM528 224c-26.5 0-48 21.5-48 48l0 48 96 0 0-48c0-26.5-21.5-48-48-48zm-80 48c0-44.2 35.8-80 80-80s80 35.8 80 80l0 48 32 0 0 32 0 128 0 32-32 0-160 0-32 0 0-32 0-128 0-32 32 0 0-48zm0 80l0 128 160 0 0-128-160 0z"/></svg>

<svg xmlns="http://www.w3.org/2000/svg" viewBox="0 0 640 512"><!--! Font Awesome Pro 6.5.2 by @fontawesome - https://fontawesome.com License - https://fontawesome.com/license (Commercial License) Copyright 2024 Fonticons, Inc. --><path d="M32 32H48h64 32 96 32 96 32 96 32 64 16V64H592 528v64h64 16v32H592 528 496 400 368 272 240 144 112 48 32V128H48h64V64H48 32V32zM384 264.4V288v48c0-35.3-28.7-64-64-64s-64 28.7-64 64V464v16H240 144 128V464 336c0-35.3-28.7-64-64-64H48 32V240H48 64c53 0 96 43 96 96V448h64V336c0-53 43-96 96-96c24.6 0 47 9.2 64 24.4zM400 64v64h96V64H400zm-32 64V64H272v64h96zM144 64v64h96V64H144zM528 224c-26.5 0-48 21.5-48 48v48h96V272c0-26.5-21.5-48-48-48zm-80 48c0-44.2 35.8-80 80-80s80 35.8 80 80v48h32v32V480v32H608 448 416V480 352 320h32V272zm0 80V480H608V352H448z"/></svg>
